!!!COM: Haydn, Franz Joseph
!!!OPR: London Symphonies
!!!OTL: Symphonie Nr. 103
!!!XEN: Symphony No. 103 in E-flat major
!!!OTP: "Drumroll"
!!!OMV: Movement 3.
!!!YEC: Copyright 1996, Center for Computer Assisted Research in the Humanities
!!!YEM: Rights to all derivative electronic formats reserved.
!!!YEM: Refer to licensing agreement for further details.
!!
!! Menuetto & Trio
!! Menuetto
**kern	**kern	**kern	**kern	**kern	**kern	**kern	**kern	**kern	**kern	**kern	**kern	**kern	**kern	**kern	**kern	**kern
!Contrabasso	!Violoncello	!Viola	!Violino II	!Violino I	!Timpani in Eb, Bb	!Tromba 2 in Eb	!Tromba 1 in Eb	!Corno 2 in Eb	!Corno 1 in Eb	!Fagotto 2	!Fagotto 1	!Clarinetto 2 in Bb	!Clarinetto 1 in Bb	!Oboe 2	!Oboe 1	!Flauti 1 & 2
*Icbass	*Icello	*Iviola	*Ivioln	*Ivioln	*Itimpa	*Itromp	*Itromp	*Icor	*Icor	*Ifagot	*Ifagot	*Iclars	*Iclars	*Ioboe	*Ioboe	*Iflt
*ICstr	*ICstr	*ICstr	*ICstr	*ICstr	*ICidio	*ICbras	*ICbras	*ICbras	*ICbras	*ICww	*ICww	*ICww	*ICww	*ICww	*ICww	*ICww
*clefF4	*clefF4	*clefC3	*clefG2	*clefG2	*clefF4	*clefG2	*clefG2	*clefG2	*clefG2	*clefF4	*clefF4	*clefG2	*clefG2	*clefG2	*clefG2	*clefG2
*k[b-e-a-]	*k[b-e-a-]	*k[b-e-a-]	*k[b-e-a-]	*k[b-e-a-]	*k[b-e-a-]	*k[]	*k[]	*k[]	*k[]	*k[b-e-a-]	*k[b-e-a-]	*k[b-]	*k[b-]	*k[b-e-a-]	*k[b-e-a-]	*k[b-e-a-]
*M3/4	*M3/4	*M3/4	*M3/4	*M3/4	*M3/4	*M3/4	*M3/4	*M3/4	*M3/4	*M3/4	*M3/4	*M3/4	*M3/4	*M3/4	*M3/4	*M3/4
*>[A,A,B,B,C,C,D,D,A,B]	*>[A,A,B,B,C,C,D,D,A,B]	*>[A,A,B,B,C,C,D,D,A,B]	*>[A,A,B,B,C,C,D,D,A,B]	*>[A,A,B,B,C,C,D,D,A,B]	*>[A,A,B,B,C,C,D,D,A,B]	*>[A,A,B,B,C,C,D,D,A,B]	*>[A,A,B,B,C,C,D,D,A,B]	*>[A,A,B,B,C,C,D,D,A,B]	*>[A,A,B,B,C,C,D,D,A,B]	*>[A,A,B,B,C,C,D,D,A,B]	*>[A,A,B,B,C,C,D,D,A,B]	*>[A,A,B,B,C,C,D,D,A,B]	*>[A,A,B,B,C,C,D,D,A,B]	*>[A,A,B,B,C,C,D,D,A,B]	*>[A,A,B,B,C,C,D,D,A,B]	*>[A,A,B,B,C,C,D,D,A,B]
*>A	*>A	*>A	*>A	*>A	*>A	*>A	*>A	*>A	*>A	*>A	*>A	*>A	*>A	*>A	*>A	*>A
4r	4r	4r	4r	4b-'\	4r	4r	4r	4r	4r	4r	4r	4r	4r	4r	4r	4bb-\
=1	=1	=1	=1	=1	=1	=1	=1	=1	=1	=1	=1	=1	=1	=1	=1	=1
4EE-\	4E-\	4e-/ 4G/	4e-/ 4G/	(4b-z\)	4E-\	4e-/	4ee-\	4E-/	4e-\	4E-\	4E-\	4g/	4b-\	4g/	4ee-\	(4bb-z\)
4r	4r	4r	4r	8ee-\)	4r	4r	4r	4r	4r	4r	4r	4r	4r	4r	4r	8eee-\)
.	.	.	.	8r	.	.	.	.	.	.	.	.	.	.	.	8r
4r	4r	4r	4r	4ee-'\	4r	4r	4r	4r	4r	4r	4r	4r	4r	4r	4r	4eee-'\
=2	=2	=2	=2	=2	=2	=2	=2	=2	=2	=2	=2	=2	=2	=2	=2	=2
4AAA-/	4AA-/	4e-\ 4c\	4e-/ 4c/	(16ee-z/LK	4E-\	4e-/	4ee-\	4E-/	4e-\	4AA-/	4AA-/	4a-\	4cc\	4f/	4ee-\	(16eee-z\LK
.	.	.	.	8.f/J)	.	.	.	.	.	.	.	.	.	.	.	8.ff\J)
4r	4r	4r	4r	8f'/	4r	4r	4r	4r	4r	4r	4r	4r	4r	4r	4r	8ff'\
.	.	.	.	8r	.	.	.	.	.	.	.	.	.	.	.	8r
4r	4r	4r	4r	4f'/	4r	4r	4r	4r	4r	4r	4r	4r	4r	4r	4r	4ff'\
=3	=3	=3	=3	=3	=3	=3	=3	=3	=3	=3	=3	=3	=3	=3	=3	=3
4BBB-/	4BB-/	4A-/ 4F/	4d/ 4A-/	(4f/)	4BB-/	4b-/	4ff\	4B-/	4f\	4BB-/	4BB-/	4a-\	4dd\	4f/	4dd\	(4ff\)
4r	4r	4r	4r	8b-\)	4r	4r	4r	4r	4r	4r	4r	4r	4r	4r	4r	8bb-\)
.	.	.	.	8r	.	.	.	.	.	.	.	.	.	.	.	8r
4r	4r	4r	4r	4b-'\	4r	4r	4r	4r	4r	4r	4r	4r	4r	4r	4r	4bb-'\
=4	=4	=4	=4	=4	=4	=4	=4	=4	=4	=4	=4	=4	=4	=4	=4	=4
4EE-\	4E-\	4G/ 4E-/	4e-/ 4G/	(16b-z/LK	4E-\	4ee-\	4gg\	4e-\	4g\	4E-\	4E-\	4g/	4ee-\	4g/	4ee-\	(16bb-z\LK
.	.	.	.	8.e-/J)	.	.	.	.	.	.	.	.	.	.	.	8.ee-\J)
4r	4r	4r	4r	8e-'/	4r	4r	4r	4r	4r	4r	4r	4r	4r	4r	4r	8ee-'\
.	.	.	.	8r	.	.	.	.	.	.	.	.	.	.	.	8r
4E-\	4e-\	4e-\	4gg\ 4b-\	4gg\	4E-\	4ee-\	4gg\	4e-\	4g\	4e-\	4e-\	4ee-\	4gg\	4b-\	4gg\	4gg\
=5	=5	=5	=5	=5	=5	=5	=5	=5	=5	=5	=5	=5	=5	=5	=5	=5
2Dz\	2dz\	2dz\	2ffz\ 2b-\	2aa-z\)	4BB-z/	2b-z/	2ffz\	2B-z/	2fz\	2dz\	2dz\	2ffz\	2aa-z\	2.b-\	2aa-z\	2aa-z\)
.	.	.	.	.	8BB-/L	.	.	.	.	.	.	.	.	.	.	.
.	.	.	.	.	8BB-/J	.	.	.	.	.	.	.	.	.	.	.
4E-\	4e-\	4e-\	4gg\ 4b-\	4gg\	4E-\	4ee-\	4gg\	4e-\	4g\	4e-\	4e-\	4ee-\	4gg\	.	4gg\	4gg\
=6	=6	=6	=6	=6	=6	=6	=6	=6	=6	=6	=6	=6	=6	=6	=6	=6
2.AA-\	2.A-\	2.f\	2.dd/ 2.f/	(16ff\LL	4r	4ff\	4aa-\	2.B-/	2.f\	2.A-\	2.A-\	8ff\	8ff\	2.dd\	8ff\	(16ff\LL
.	.	.	.	16aa-\JJ)	.	.	.	.	.	.	.	.	.	.	.	16aa-\JJ)
.	.	.	.	8r	.	.	.	.	.	.	.	8r	8r	.	8r	8r
.	.	.	.	(16aa-\LL	4r	4r	4r	.	.	.	.	8aa-\	8aa-\	.	8ccc\	(16aa-\LL
.	.	.	.	16ccc\JJ)	.	.	.	.	.	.	.	.	.	.	.	16ccc\JJ)
.	.	.	.	8r	.	.	.	.	.	.	.	8r	8r	.	8r	8r
.	.	.	.	(16dd\LL	4BB-/	4b-'/	4ff'\	.	.	.	.	8a-\	8dd\	.	8dd\	(16dd\LL
.	.	.	.	16ff\JJ)	.	.	.	.	.	.	.	.	.	.	.	16ff\JJ)
.	.	.	.	8r	.	.	.	.	.	.	.	8r	8r	.	8r	8r
=7	=7	=7	=7	=7	=7	=7	=7	=7	=7	=7	=7	=7	=7	=7	=7	=7
8GG\	8G\	8g\	8ee-/ 8e-/	8ee-\	4E-\	4g'/	4ee-'\	4e-'\	4g'\	8G\	8G\	8g/	8ee-\	8ee-\	8ee-\	8ee-\
8r	8r	8r	8r	8r	.	.	.	.	.	8r	8r	8r	8r	8r	8r	8r
8DD\	8D\	8B-/	8ff\	8aa-\	4BB-/	4b-'/	4ff'\	4f'\	4a-'\	8D\	8D\	8a-\	8ff\	8ff\	8aa-\	8aa-\
8r	8r	8r	8r	8r	.	.	.	.	.	8r	8r	8r	8r	8r	8r	8r
8EE-\	8E-\	8B-/	8ee-\	8gg\	4E-\	4ee-'\	4gg'\	4e-'\	4g'\	8E-\	8E-\	8g/	8ee-\	8ee-\	8gg\	8gg\
8r	8r	8r	8r	8r	.	.	.	.	.	8r	8r	8r	8r	8r	8r	8r
=8	=8	=8	=8	=8	=8	=8	=8	=8	=8	=8	=8	=8	=8	=8	=8	=8
4BB-\	4B-\	4B-/	4dd\	(16ffz\LK	4BB-/	4b-/	4ff\	4B-/	4f\	4B-\	4B-\	4f/	4dd\	4dd\	4ff\	(16ffz\LK
.	.	.	.	8.b-\J)	.	.	.	.	.	.	.	.	.	.	.	8.b-\J)
4r	4r	4r	4r	8b-'\	4r	4r	4r	4r	4r	4r	4r	4r	4r	4r	4r	8b-'\
.	.	.	.	8r	.	.	.	.	.	.	.	.	.	.	.	8r
4r	4r	4r	4r	4r	4r	4r	4r	4r	4r	4r	4r	4r	4r	4r	4r	4r
=9	=9	=9	=9	=9	=9	=9	=9	=9	=9	=9	=9	=9	=9	=9	=9	=9
2.r	2.r	2.r	2.r	2.r	2.r	2.r	2.r	16f/LK	(16f/LK	(16f\LK	(16f\LK	(16f/LK	2.r	2.r	2.r	2.r
.	.	.	.	.	.	.	.	8.B-/J	8.B-/J)	8.B-\J)	8.B-\J)	8.B-/J)	.	.	.	.
.	.	.	.	.	.	.	.	8B-'/	8B-'/	8B-'\	8B-'\	8B-'/	.	.	.	.
.	.	.	.	.	.	.	.	8r	8r	8r	8r	8r	.	.	.	.
.	.	.	.	.	.	.	.	4r	4r	4r	4r	4r	.	.	.	.
=10	=10	=10	=10	=10	=10	=10	=10	=10	=10	=10	=10	=10	=10	=10	=10	=10
4r	4r	4r	4r	4r	4r	4r	4r	4r	4r	4r	4r	4r	(16ff\LK	(16ff\LK	(16ff\LK	(16fff\LK
.	.	.	.	.	.	.	.	.	.	.	.	.	8.b-\J)	8.b-\J)	8.b-\J)	8.bb-\J)
4r	4r	4r	4r	4r	4r	4r	4r	4r	4r	4r	4r	4r	8b-'\	8b-'\	8b-'\	8bb-'\
.	.	.	.	.	.	.	.	.	.	.	.	.	8r	8r	8r	8r
=:||:@	=:||:@	=:||:@	=:||:@	=:||:@	=:||:@	=:||:@	=:||:@	=:||:@	=:||:@	=:||:@	=:||:@	=:||:@	=:||:@	=:||:@	=:||:@	=:||:@
*>B	*>B	*>B	*>B	*>B	*>B	*>B	*>B	*>B	*>B	*>B	*>B	*>B	*>B	*>B	*>B	*>B
4r	4r	4r	4r	4f/	4r	4r	4r	4r	4r	4r	4r	4r	4r	4r	4r	4r
=11	=11	=11	=11	=11	=11	=11	=11	=11	=11	=11	=11	=11	=11	=11	=11	=11
2DD\	2D\	2A-/	2B-/	(8f/L	2.r	2.r	2.r	2.r	2.r	2.r	2.r	2.r	2.r	2.r	2.r	2.r
.	.	.	.	8B-/J)	.	.	.	.	.	.	.	.	.	.	.	.
.	.	.	.	(4B-/	.	.	.	.	.	.	.	.	.	.	.	.
4r	4r	4r	4r	4g-/)	.	.	.	.	.	.	.	.	.	.	.	.
=12	=12	=12	=12	=12	=12	=12	=12	=12	=12	=12	=12	=12	=12	=12	=12	=12
2EE-\	2E-\	2G-/	2B-/	(8g-/L	2.r	2.r	2.r	2.r	2.r	2.r	2.r	2.r	2.r	2.r	2.r	2.r
.	.	.	.	8B-/J)	.	.	.	.	.	.	.	.	.	.	.	.
.	.	.	.	4B-/	.	.	.	.	.	.	.	.	.	.	.	.
4r	4r	4r	4r	4g-/	.	.	.	.	.	.	.	.	.	.	.	.
=13	=13	=13	=13	=13	=13	=13	=13	=13	=13	=13	=13	=13	=13	=13	=13	=13
(4CC-'/	(4C-'/	(4g-'\	(4e-'/	(4cc-'\	2.r	2.r	2.r	[2.E-/	[2.e-\	2.r	[2.G-\	2.r	[2.cc-\	2.r	2.r	2.r
4CC-'/	4C-'/	4g-'\	4e-'/	4cc-'\	.	.	.	.	.	.	.	.	.	.	.	.
4CC-'/)	4C-'/)	4g-'\)	4e-'/)	4cc-'\)	.	.	.	.	.	.	.	.	.	.	.	.
=14	=14	=14	=14	=14	=14	=14	=14	=14	=14	=14	=14	=14	=14	=14	=14	=14
2.CC-/	2.C-/	2.g-\	2.e-/	4.cc-\	2.r	2.r	2.r	2.E-/]	2.e-\]	2.r	2.G-\]	2.r	2.cc-\]	2.r	2.r	2.r
.	.	.	.	(8b-/L	.	.	.	.	.	.	.	.	.	.	.	.
.	.	.	.	8a-/	.	.	.	.	.	.	.	.	.	.	.	.
.	.	.	.	8g-/J)	.	.	.	.	.	.	.	.	.	.	.	.
=15	=15	=15	=15	=15	=15	=15	=15	=15	=15	=15	=15	=15	=15	=15	=15	=15
(2.DD-\	(2.D-\	(2.A-/	(2.c-/	4f/	2.r	2.r	2.r	2.r	(2.f\	2.r	(2.c-\	2.r	2.a-\	2.r	2.r	2.r
.	.	.	.	(8f/L	.	.	.	.	.	.	.	.	.	.	.	.
.	.	.	.	8g-/	.	.	.	.	.	.	.	.	.	.	.	.
.	.	.	.	8a-/	.	.	.	.	.	.	.	.	.	.	.	.
.	.	.	.	8f/J)	.	.	.	.	.	.	.	.	.	.	.	.
=16	=16	=16	=16	=16	=16	=16	=16	=16	=16	=16	=16	=16	=16	=16	=16	=16
4GGG-/)	4GG-/)	4B-/)	4B-/)	(4g-/	2.r	2.r	2.r	2.r	4g-\)	2.r	4B-\)	2.r	4b-\	2.r	2.r	2.r
4r	4r	4r	4r	4b-\	.	.	.	.	4r	.	4r	.	4r	.	.	.
4r	4r	4r	4r	4dd-\)	.	.	.	.	4r	.	4r	.	4r	.	.	.
=17	=17	=17	=17	=17	=17	=17	=17	=17	=17	=17	=17	=17	=17	=17	=17	=17
(2.DD-\	(2.D-\	(2.A-/	(2.c-/	4f/	2.r	2.r	2.r	2.r	(2.f\	2.r	(2.A-\	2.r	2.a-\	2.r	2.r	2.r
.	.	.	.	(8f/L	.	.	.	.	.	.	.	.	.	.	.	.
.	.	.	.	8g-/	.	.	.	.	.	.	.	.	.	.	.	.
.	.	.	.	8a-/	.	.	.	.	.	.	.	.	.	.	.	.
.	.	.	.	8f/J)	.	.	.	.	.	.	.	.	.	.	.	.
=18	=18	=18	=18	=18	=18	=18	=18	=18	=18	=18	=18	=18	=18	=18	=18	=18
4GGG-/)	4GG-/)	4B-/)	4B-/)	(8g-/L	2.r	2.r	2.r	2.r	4g-\)	2.r	4B-\)	2.r	4b-\	2.r	2.r	4r
.	.	.	.	8f/	.	.	.	.	.	.	.	.	.	.	.	.
4r	4r	4r	4r	8g-/	.	.	.	.	4r	.	4r	.	4r	.	.	4r
.	.	.	.	8a-/J)	.	.	.	.	.	.	.	.	.	.	.	.
4r	4r	4r	4r	4b-\	.	.	.	.	4r	.	4r	.	4r	.	.	4b-\
=19	=19	=19	=19	=19	=19	=19	=19	=19	=19	=19	=19	=19	=19	=19	=19	=19
!! No "a 2" in Dover meas.19-27. An oversight? Other winds are doubled here.
4r	4r	4r	4r	(4b-\)	2.r	2.r	2.r	2.r	2.r	4r	4r	2.r	2.r	[2.b-\	[2.bb-\	(4b-\)
4r	4r	4r	4r	8bb-\)	.	.	.	.	.	4r	4r	.	.	.	.	8bb-\)
.	.	.	.	8r	.	.	.	.	.	.	.	.	.	.	.	8r
4EE-\	4E-\	4e-\	4g-/	4bb-'\	.	.	.	.	.	4E-\	4E-\	.	.	.	.	4bb-'\
=20	=20	=20	=20	=20	=20	=20	=20	=20	=20	=20	=20	=20	=20	=20	=20	=20
(4EE-\)	(4E-\)	(4e-\)	(4g-/)	(16bb-\LK	2.r	2.r	2.r	2.r	2.r	2.E-\	2.E-\	2.g-/	2.g-/	2.b-\]	2.bb-\]	(16bb-\LK
.	.	.	.	8.cc-\J)	.	.	.	.	.	.	.	.	.	.	.	8.cc-\J)
8E-\)	8e-\)	8ee-\)	8gg-\)	8cc-'\	.	.	.	.	.	.	.	.	.	.	.	8cc-\
8r	8r	8r	8r	8r	.	.	.	.	.	.	.	.	.	.	.	8r
4E-\	4e-\	4ee-\	4gg-\	4cc-\	.	.	.	.	.	.	.	.	.	.	.	4cc-\
=21	=21	=21	=21	=21	=21	=21	=21	=21	=21	=21	=21	=21	=21	=21	=21	=21
(8.E-z\L	(8.e-z\L	(16ee-z\LK	(16gg-z\LK	(4cc-\)	2.r	2.r	2.r	2.r	2.r	2.F\	2.F\	4a-\	4a-\	2.cc\	[2.aa-z\	(4cc-\)
.	.	8.f\J)	8.a-\J)	.	.	.	.	.	.	.	.	.	.	.	.	.
16FF\Jk)	16F\Jk)	.	.	.	.	.	.	.	.	.	.	.	.	.	.	.
8FF'\	8F'\	8f'\	8a-'/	8aa-\)	.	.	.	.	.	.	.	4r	4r	.	.	8aa-\)
8r	8r	8r	8r	8r	.	.	.	.	.	.	.	.	.	.	.	8r
4FF\	4F\	4f\	4a-/	4aa-z\	.	.	.	.	.	.	.	4r	4r	.	.	4aa-\
=22	=22	=22	=22	=22	=22	=22	=22	=22	=22	=22	=22	=22	=22	=22	=22	=22
(4FF\)	(4F\)	(4f\)	(4a-/)	(16aa-z\LK	4BB-/	2.b-/	2.ff\	2.B-/	2.f\	2.D\	2.D\	2.f/	2.f/	[2.b-z\	2.aa-\]	(16aa-z\LK
.	.	.	.	8.b-\J)	.	.	.	.	.	.	.	.	.	.	.	8.b-\J)
8D\)	8d\)	8dd\)	8ff\)	8b-'\	8BB-/L	.	.	.	.	.	.	.	.	.	.	8b-\
8r	8r	8r	8r	8r	8BB-/	.	.	.	.	.	.	.	.	.	.	8r
4D\	4d\	4dd\	4ff\	4b-\	8BB-/	.	.	.	.	.	.	.	.	.	.	4b-\
.	.	.	.	.	8BB-/J	.	.	.	.	.	.	.	.	.	.	.
=23	=23	=23	=23	=23	=23	=23	=23	=23	=23	=23	=23	=23	=23	=23	=23	=23
(16Dz\LK	(16dz\LK	(16ddz\LK	(16ffz\LK	(4b-z\)	4E-\	2.e-z/	2.ee-z\	2.E-z/	2.e-z\	2.E-z\	2.E-z\	4g-/	4g-/	2.b-\]	2.gg-z\	(4b-\)
8.EE-\J)	8.E-\J)	8.e-\J)	8.g-\J)	.	.	.	.	.	.	.	.	.	.	.	.	.
8EE-'\	8E-'\	8e-'\	8g-'/	8gg-\)	4r	.	.	.	.	.	.	4r	4r	.	.	8gg-\)
8r	8r	8r	8r	8r	.	.	.	.	.	.	.	.	.	.	.	8r
4EE-\	4E-\	4e-\	4B-/	4gg-\	4r	.	.	.	.	.	.	4r	4r	.	.	4gg-\
=24	=24	=24	=24	=24	=24	=24	=24	=24	=24	=24	=24	=24	=24	=24	=24	=24
(2.CC-z/	(2.C-z/	(2.E-z/	(2.Az/	(8aa-z\L	4E-\	(2.e-z/	(2.ee-z\	(2.E-z/	(2.e-z\	(2.C-z/	(2.C-z/	2g-z/	2g-z/	(2.e-z/	(2.az/	(8aa-\L
.	.	.	.	8gg-\)	.	.	.	.	.	.	.	.	.	.	.	8gg-\)
.	.	.	.	(8gg-\	4r	.	.	.	.	.	.	.	.	.	.	(8gg-\
.	.	.	.	8ff\)	.	.	.	.	.	.	.	.	.	.	.	8ff\)
.	.	.	.	(8ff\	4r	.	.	.	.	.	.	4e-/	4e-/	.	.	(8ff\
.	.	.	.	8ee-\J)	.	.	.	.	.	.	.	.	.	.	.	8ee-\J)
=25	=25	=25	=25	=25	=25	=25	=25	=25	=25	=25	=25	=25	=25	=25	=25	=25
4BBB-/)	4BB-/)	4F/)	4B-/)	(8ee-\L	4BB-/	4b-/)	4ff\)	4B-/)	4f\)	4BB-/)	4BB-/)	4b-\	4b-\	4d/)	4b-\)	(8ee-\L
.	.	.	.	8dd\)	.	.	.	.	.	.	.	.	.	.	.	8dd\)
4r	4r	4r	4r	(8dd\	4r	4r	4r	4r	4r	4r	4r	4r	4r	4r	4r	(8dd\
.	.	.	.	8cc\)	.	.	.	.	.	.	.	.	.	.	.	8cc\)
4r	4r	4r	4r	(8cc\	4r	4r	4r	4r	4r	4r	4r	4r	4r	4r	4r	(8cc\
.	.	.	.	8b-\J)	.	.	.	.	.	.	.	.	.	.	.	8b-\J)
=26	=26	=26	=26	=26	=26	=26	=26	=26	=26	=26	=26	=26	=26	=26	=26	=26
(2.CC-z/	(2.C-z/	(2.E-z/	(2.Az/	(8aa-\L	4E-\	(2.e-z/	(2.ee-z\	(2.E-z/	(2.e-z\	(2.C-z/	(2.C-z/	2g-z/	2g-z/	(2.e-z/	(2.az/	(8aa-z\L
.	.	.	.	8gg-\)	.	.	.	.	.	.	.	.	.	.	.	8gg-\)
.	.	.	.	(8gg-\	4r	.	.	.	.	.	.	.	.	.	.	(8gg-\
.	.	.	.	8ff\)	.	.	.	.	.	.	.	.	.	.	.	8ff\)
.	.	.	.	(8ff\	4r	.	.	.	.	.	.	4e-/	4e-/	.	.	(8ff\
.	.	.	.	8ee-\J)	.	.	.	.	.	.	.	.	.	.	.	8ee-\J)
=27	=27	=27	=27	=27	=27	=27	=27	=27	=27	=27	=27	=27	=27	=27	=27	=27
4BBB-/)	4BB-/)	4F/)	4B-/)	(8ee-\L	4BB-/	4b-/)	4ff\)	4B-/)	4f\)	4BB-/)	4BB-/)	4b-\	4b-\	4d/)	4b-\)	(8ee-\L
.	.	.	.	8dd\)	.	.	.	.	.	.	.	.	.	.	.	8dd\)
4r	4r	4r	4r	(8dd\	4r	4r	4r	4r	4r	4r	4r	4r	4r	4r	4r	(8dd\
.	.	.	.	8cc\)	.	.	.	.	.	.	.	.	.	.	.	8cc\)
4r	4r	4r	4r	(8cc\	4r	4r	4r	4r	4r	4r	4r	4r	4r	4r	4r	(8cc\
.	.	.	.	8b-\J)	.	.	.	.	.	.	.	.	.	.	.	8b-\J)
=28	=28	=28	=28	=28	=28	=28	=28	=28	=28	=28	=28	=28	=28	=28	=28	=28
2.r	2.r	2.r	2.r	(8aa-\L	2.r	2.r	2.r	2.r	2.r	2.r	2.r	2.r	2.r	2.r	2.r	2.r
.	.	.	.	8gg-\)	.	.	.	.	.	.	.	.	.	.	.	.
.	.	.	.	(8gg-\	.	.	.	.	.	.	.	.	.	.	.	.
.	.	.	.	8ff\)	.	.	.	.	.	.	.	.	.	.	.	.
.	.	.	.	(8ff\	.	.	.	.	.	.	.	.	.	.	.	.
.	.	.	.	8ee-\J)	.	.	.	.	.	.	.	.	.	.	.	.
=29	=29	=29	=29	=29	=29	=29	=29	=29	=29	=29	=29	=29	=29	=29	=29	=29
2.r	2.r	2.r	2.r	(8gg-\L	2.r	2.r	2.r	2.r	2.r	2.r	2.r	2.r	2.r	2.r	2.r	2.r
.	.	.	.	8ff\)	.	.	.	.	.	.	.	.	.	.	.	.
.	.	.	.	(8ff\	.	.	.	.	.	.	.	.	.	.	.	.
.	.	.	.	8ee-\)	.	.	.	.	.	.	.	.	.	.	.	.
.	.	.	.	(8ee-\	.	.	.	.	.	.	.	.	.	.	.	.
.	.	.	.	8dd\J)	.	.	.	.	.	.	.	.	.	.	.	.
=30	=30	=30	=30	=30	=30	=30	=30	=30	=30	=30	=30	=30	=30	=30	=30	=30
2.r	2.r	2.r	2.r	(8ff\L	2.r	2.r	2.r	2.r	2.r	2.r	2.r	2.r	2.r	2.r	2.r	2.r
.	.	.	.	8ee-\)	.	.	.	.	.	.	.	.	.	.	.	.
.	.	.	.	(8ee-\	.	.	.	.	.	.	.	.	.	.	.	.
.	.	.	.	8dd\)	.	.	.	.	.	.	.	.	.	.	.	.
.	.	.	.	(8dd\	.	.	.	.	.	.	.	.	.	.	.	.
.	.	.	.	8cc\J)	.	.	.	.	.	.	.	.	.	.	.	.
=31	=31	=31	=31	=31	=31	=31	=31	=31	=31	=31	=31	=31	=31	=31	=31	=31
2.r	2.r	2.r	4r	(8ee-\L	2.r	2.r	2.r	4r	4r	4r	4r	4r	4r	4r	4r	4r
.	.	.	.	8dd\)	.	.	.	.	.	.	.	.	.	.	.	.
.	.	.	4r	(8dd\	.	.	.	4r	4r	4r	4r	4r	4r	4r	4r	4r
.	.	.	.	8cc\J)	.	.	.	.	.	.	.	.	.	.	.	.
.	.	.	4e-/ 4G/	(8cc\L	.	.	.	4G/	4e-\	4B-\	4B-\	4g/	4b-\	4b-\	4b-\	4bb-\
.	.	.	.	8b-\J)	.	.	.	.	.	.	.	.	.	.	.	.
=32	=32	=32	=32	=32	=32	=32	=32	=32	=32	=32	=32	=32	=32	=32	=32	=32
4EE-\	4E-\	4e-/ 4G/	4e-/ 4G/	(4b-\)	4E-\	4g/	4ee-\	4G/	4e-\	(4B-\)	(4B-\)	4g/	4b-\	4g/	4b-\	(4bb-\)
4r	4r	4r	4r	8ee-\)	4r	4r	4r	4r	4r	8e-\)	8e-\)	4r	4r	4r	4r	8eee-\)
.	.	.	.	8r	.	.	.	.	.	8r	8r	.	.	.	.	8r
4r	4r	4r	4r	4ee-'\	4r	4r	4r	4r	4r	4e-\	4e-\	4r	4r	4r	4r	4eee-'\
=33	=33	=33	=33	=33	=33	=33	=33	=33	=33	=33	=33	=33	=33	=33	=33	=33
4AAA-/	4AA-/	4e-\ 4c\	4e-/ 4c/	(16ee-z/LK	4E-\	4e-/	4ee-\	4E-/	4e-\	(16e-z\LK	(16e-z\LK	4a-\	4cc\	4f/	4cc\	(16eee-z\LK
.	.	.	.	8.f/J)	.	.	.	.	.	8.F\J)	8.F\J)	.	.	.	.	8.ff\J)
4r	4r	4r	4r	8f'/	4r	4r	4r	4r	4r	8F\	8F\	4r	4r	4r	4r	8ff'\
.	.	.	.	8r	.	.	.	.	.	8r	8r	.	.	.	.	8r
4r	4r	4r	4r	4f/	4r	4r	4r	4r	4r	4F\	4F\	4r	4r	4r	4r	4ff'\
=34	=34	=34	=34	=34	=34	=34	=34	=34	=34	=34	=34	=34	=34	=34	=34	=34
4BBB-/	4BB-/	4A-/ 4F/	4d/ 4A-/	(4f/)	4BB-/	4b-/	4ff\	4B-/	4f\	(4F\)	(4F\)	4a-\	4dd\	4f/	4dd\	(4ff\)
4r	4r	4r	4r	8b-\)	4r	4r	4r	4r	4r	8B-\)	8B-\)	4r	4r	4r	4r	8bb-\)
.	.	.	.	8r	.	.	.	.	.	8r	8r	.	.	.	.	8r
4r	4r	4r	4r	4b-'\	4r	4r	4r	4r	4r	4B-\	4B-\	4r	4r	4r	4r	4bb-'\
=35	=35	=35	=35	=35	=35	=35	=35	=35	=35	=35	=35	=35	=35	=35	=35	=35
4EE-\	4E-\	4G/ 4E-/	4e-/ 4G/	(16b-z/LK	4E-\	4ee-\	4gg\	4e-\	4g\	16B-z\LK	16B-z\LK	4g/	4ee-\	4g/	4ee-\	(16bb-z\LK
.	.	.	.	8.e-/J)	.	.	.	.	.	8.E-\J	8.E-\J	.	.	.	.	8.ee-\J)
4r	4r	4r	4r	8e-'/	4r	4r	4r	4r	4r	8E-\	8E-\	4r	4r	4r	4r	8ee-'\
.	.	.	.	8r	.	.	.	.	.	8r	8r	.	.	.	.	8r
4E-\	4e-\	4e-\	4gg\ 4b-\	4gg\	4E-\	4ee-\	4gg\	4e-\	4g\	4e-\	4e-\	4ee-\	4gg\	4b-\	4gg\	4gg\
=36	=36	=36	=36	=36	=36	=36	=36	=36	=36	=36	=36	=36	=36	=36	=36	=36
2Dz\	2dz\	2dz\	2ffz\ 2b-\	2aa-z\)	4BB-z/	2b-z/	2ffz\	2B-z/	2fz\	2dz\	2dz\	2ffz\	2aa-z\	2.b-\	2aa-z\	2aa-z\)
.	.	.	.	.	8BB-/L	.	.	.	.	.	.	.	.	.	.	.
.	.	.	.	.	8BB-/J	.	.	.	.	.	.	.	.	.	.	.
4E-\	4e-\	4e-\	4gg\ 4b-\	4gg\	4E-\	4ee-\	4gg\	4e-\	4g\	4e-\	4e-\	4ee-\	4gg\	.	4gg\	4gg\
=37	=37	=37	=37	=37	=37	=37	=37	=37	=37	=37	=37	=37	=37	=37	=37	=37
2.AA-\	2.A-\	2.f\	2.dd/ 2.f/	(16ff\LL	4r	4ff\	4aa-\	2.B-/	2.f\	2.A-\	2.A-\	8ff\	8ff\	2.dd\	2.ff\	(16ff\LL
.	.	.	.	16aa-\JJ)	.	.	.	.	.	.	.	.	.	.	.	16aa-\JJ)
.	.	.	.	8r	.	.	.	.	.	.	.	8r	8r	.	.	8r
.	.	.	.	(16aa-\LL	4r	4r	4r	.	.	.	.	8aa-\	8aa-\	.	.	(16aa-\LL
.	.	.	.	16ccc\JJ)	.	.	.	.	.	.	.	.	.	.	.	16ccc\JJ)
.	.	.	.	8r	.	.	.	.	.	.	.	8r	8r	.	.	8r
.	.	.	.	(16dd\LL	4BB-/	4b-'/	4ff'\	.	.	.	.	8a-\	8dd\	.	.	(16dd\LL
.	.	.	.	16ff\JJ)	.	.	.	.	.	.	.	.	.	.	.	16ff\JJ)
.	.	.	.	8r	.	.	.	.	.	.	.	8r	8r	.	.	8r
=38	=38	=38	=38	=38	=38	=38	=38	=38	=38	=38	=38	=38	=38	=38	=38	=38
8GG\	8G\	8g\	8ee-/ 8e-/	(16ee-\LL	4E-\	4ee-'\	4gg'\	4e-'\	4g'\	8G\	8G\	8g/	8ee-\	8ee-\	8gg\	(16ee-\LL
.	.	.	.	16gg\JJ)	.	.	.	.	.	.	.	.	.	.	.	16gg\JJ)
8r	8r	8r	8r	8r	.	.	.	.	.	8r	8r	8r	8r	8r	8r	8r
8AAA-/	8AA-/	8A-/	8ff\	(16ff\LL	4r	4ff'\	4aa-'\	4f'\	4a-'\	8AA-/	8AA-/	8cc\	8ff\	8ff\	8aa-\	(16ff\LL
.	.	.	.	16aa-\JJ)	.	.	.	.	.	.	.	.	.	.	.	16aa-\JJ)
8r	8r	8r	8r	8r	.	.	.	.	.	8r	8r	8r	8r	8r	8r	8r
8BBB-/	8BB-/	8B-/	8dd/ 8f/	(16dd\LL	4BB-/	4b-'/	4ff'\	4B-'/	4f'\	8BB-/	8BB-/	8a-\	8dd\	8dd\	8ff\	(16dd\LL
.	.	.	.	16ff\JJ)	.	.	.	.	.	.	.	.	.	.	.	16ff\JJ)
8r	8r	8r	8r	8r	.	.	.	.	.	8r	8r	8r	8r	8r	8r	8r
=39	=39	=39	=39	=39	=39	=39	=39	=39	=39	=39	=39	=39	=39	=39	=39	=39
(8CC\L	(8C\L	4c\	8ee-/L (8e-/	(8ee-\L	4E-\	4ee-\	4ee-\	4e-\	4e-\	(8C\L	(8C\L	8g/L	8ee-\L	4ee-\	4ee-\	(8ee-\L
8C\J)	8c\J)	.	8a/J)	8eee-\J)	.	.	.	.	.	8c\J)	8c\J)	8a/J	8a\J	.	.	8eee-\J)
4C'\	4c'\	4c\	4a'/	4eee-'\	8E-\L	4ee-\	4ee-\	4e-\	4e-\	4c'\	4c'\	4a\	4a\	4ee-\	4aa\	4eee-'\
.	.	.	.	.	8E-\	.	.	.	.	.	.	.	.	.	.	.
4C'\	4c'\	4c\	4a'/	4eee-'\	8E-\	4ee-\	4ee-\	4e-\	4e-\	4c'\	4c'\	4a\	4a\	4ee-\	4aa\	4eee-'\
.	.	.	.	.	8E-\J	.	.	.	.	.	.	.	.	.	.	.
=40	=40	=40	=40	=40	=40	=40	=40	=40	=40	=40	=40	=40	=40	=40	=40	=40
4C\	4c\	4c\	4a/	4eee-\	4E-\	4ee-\	4ee-\	4e-\	4e-\	4c\	4c\	4a\	4a\	4ee-\	4aa\	4eee-\
4r	4r	4r	4r	4r	4r	4r	4r	4r	4r	4r	4r	4r	4r	4r	4r	4r
4r	4r	4r	4r	4r	4r	4r	4r	4r	4r	4r	4r	4r	4r	4r	4r	4r
=41	=41	=41	=41	=41	=41	=41	=41	=41	=41	=41	=41	=41	=41	=41	=41	=41
!! Notes written as sounded in Dover m.41-42. Entered them a whole step higher.
!! Notes written as sounded in Dover m.41-42. Entered them a whole step higher.  
(4C-'\	(4c-'\	4a-\	4ff\	(8dd\L	2.r	2.r	2.r	2.r	2.r	(4c-'\	(4c-'\	4dd\	4ff\	4ff\	4aa-\	(8dd\L
.	.	.	.	8ddd\J)	.	.	.	.	.	.	.	.	.	.	.	8ddd\J)
4C-'\	4c-'\	4a-\	4ff\	4ddd'\	.	.	.	.	.	4c-'\	4c-'\	4dd\	4ff\	4ff\	4aa-\	4ddd'\
4C-'\)	4c-'\)	4a-\	4ff\	4ddd'\	.	.	.	.	.	4c-'\)	4c-'\)	4dd\	4ff\	4ff\	4aa-\	4ddd'\
=42	=42	=42	=42	=42	=42	=42	=42	=42	=42	=42	=42	=42	=42	=42	=42	=42
4C-\	4c-\	4a-\	4ff\	4ddd\	2.r	2.r	2.r	2.r	2.r	4c-\	4c-\	4dd\	4ff\	4ff\	4aa-\	4ddd\
4r	4r	4r	4r	4r	.	.	.	.	.	4r	4r	4r	4r	4r	4r	4r
4r	4r	4r	4r	4r	.	.	.	.	.	4r	4r	4r	4r	4r	4r	4r
=43	=43	=43	=43	=43	=43	=43	=43	=43	=43	=43	=43	=43	=43	=43	=43	=43
4BB-'\	4B-'\	4B-'/	4ee-'\ 4g\	(8ee-\L	4BB-/	[2.ee-\	[2.gg\	[2.g\	[2.b-\	[2.B-\	[2.B-\	[2.g/	[2.ee-\	[2.ee-\	[2.gg\	(8ee-\L
.	.	.	.	8eee-\J)	.	.	.	.	.	.	.	.	.	.	.	8eee-\J)
4BB-'\	4B-'\	4B-'/	4ee-'\ 4g\	4eee-'\	4r	.	.	.	.	.	.	.	.	.	.	4eee-'\
4BB-'\	4B-'\	4B-'/	4ee-'\ 4g\	4eee-'\	4r	.	.	.	.	.	.	.	.	.	.	4eee-'\
=44	=44	=44	=44	=44	=44	=44	=44	=44	=44	=44	=44	=44	=44	=44	=44	=44
4BB-\	4B-\	4B-/	(16ee-\LL	(16eee-\LL	4BB-/	2.ee-_\	2.gg_\	2.g_\	2.b-_\	2.B-_\	2.B-_\	2.g_/	2.ee-_\	2.ee-_\	2.gg_\	(16eee-\LL
.	.	.	16b-\JJ)	16bb-\JJ)	.	.	.	.	.	.	.	.	.	.	.	16bb-\JJ)
.	.	.	8r	8r	.	.	.	.	.	.	.	.	.	.	.	8r
4r	4r	4r	(16b-/LL	(16bb-\LL	4r	.	.	.	.	.	.	.	.	.	.	(16bb-\LL
.	.	.	16g/JJ)	16gg\JJ)	.	.	.	.	.	.	.	.	.	.	.	16gg\JJ)
.	.	.	8r	8r	.	.	.	.	.	.	.	.	.	.	.	8r
4r	4r	4r	(16g/LL	(16gg\LL	4r	.	.	.	.	.	.	.	.	.	.	(16gg\LL
.	.	.	16e-/JJ)	16ee-\JJ)	.	.	.	.	.	.	.	.	.	.	.	16ee-\JJ)
.	.	.	8r	8r	.	.	.	.	.	.	.	.	.	.	.	8r
=45	=45	=45	=45	=45	=45	=45	=45	=45	=45	=45	=45	=45	=45	=45	=45	=45
4BB-\	4B-\	4e-/ 4G/	(16ee-\LL	(16eee-\LL	4BB-/	2.ee-_\	2.gg_\	2.g_\	2.b-_\	2.B-_\	2.B-_\	2.g_/	2.ee-_\	2.ee-_\	2.gg_\	(16eee-\LL
.	.	.	16b-\JJ)	16bb-\JJ)	.	.	.	.	.	.	.	.	.	.	.	16bb-\JJ)
.	.	.	8r	8r	.	.	.	.	.	.	.	.	.	.	.	8r
4r	4r	4r	(16b-/LL	(16bb-\LL	4r	.	.	.	.	.	.	.	.	.	.	(16bb-\LL
.	.	.	16g/JJ)	16gg\JJ)	.	.	.	.	.	.	.	.	.	.	.	16gg\JJ)
.	.	.	8r	8r	.	.	.	.	.	.	.	.	.	.	.	8r
4r	4r	4r	(16g/LL	(16gg\LL	4r	.	.	.	.	.	.	.	.	.	.	(16gg\LL
.	.	.	16e-/JJ)	16ee-\JJ)	.	.	.	.	.	.	.	.	.	.	.	16ee-\JJ)
.	.	.	8r	8r	.	.	.	.	.	.	.	.	.	.	.	8r
=46	=46	=46	=46	=46	=46	=46	=46	=46	=46	=46	=46	=46	=46	=46	=46	=46
4BB-\	4B-\	4e-/ 4G/	(16ee-\LL	(16eee-\LL	8BB-/L	2ee-\]	2gg\]	2.g\]	2.b-\]	2.B-\]	2.B-\]	2g/]	2ee-\]	2ee-\]	2gg\]	(16eee-\LL
.	.	.	16b-\JJ)	16bb-\JJ)	.	.	.	.	.	.	.	.	.	.	.	16bb-\JJ)
.	.	.	8r	8r	8BB-/	.	.	.	.	.	.	.	.	.	.	8r
4r	4r	4r	(16b-/LL	(16bb-\LL	8BB-/	.	.	.	.	.	.	.	.	.	.	(16bb-\LL
.	.	.	16g/JJ)	16gg\JJ)	.	.	.	.	.	.	.	.	.	.	.	16gg\JJ)
.	.	.	8r	8r	8BB-/	.	.	.	.	.	.	.	.	.	.	8r
4r	4r	4r	(16b-/LL	(16bb-\LL	8BB-/	4gg\	4bb-\	.	.	.	.	4ee-\	4gg\	4gg\	4bb-\	(16bb-\LL
.	.	.	16g/JJ)	16gg\JJ)	.	.	.	.	.	.	.	.	.	.	.	16gg\JJ)
.	.	.	8r	8r	8BB-/J	.	.	.	.	.	.	.	.	.	.	8r
=47	=47	=47	=47	=47	=47	=47	=47	=47	=47	=47	=47	=47	=47	=47	=47	=47
4r	4r	4r	(16a-/LL	(16aa-\LL	4BB-/	4ff\	4aa-\	4f\	4a-\	4B-\	4B-\	4ff\	4aa-\	4ff\	4aa-\	(16aa-\LL
.	.	.	16f/JJ)	16ff\JJ)	.	.	.	.	.	.	.	.	.	.	.	16ff\JJ)
.	.	.	8r	8r	.	.	.	.	.	.	.	.	.	.	.	8r
4r	4r	4r	(16g/LL	(16gg\LL	4r	4ee-\	4gg\	4e-\	4g\	4r	4r	4ee-\	4gg\	4ee-\	4gg\	(16gg\LL
.	.	.	16e-/JJ)	16ee-\JJ)	.	.	.	.	.	.	.	.	.	.	.	16ee-\JJ)
.	.	.	8r	8r	.	.	.	.	.	.	.	.	.	.	.	8r
4BB-\	4B-\	4B-/	(16f/LL	(16ff\LL	4BB-/	4b-/	4ff\	4B-/	4f\	4BB-/	4BB-/	4dd\	4ff\	4dd\	4ff\	(16ff\LL
.	.	.	16B-/JJ)	16b-\JJ)	.	.	.	.	.	.	.	.	.	.	.	16b-\JJ)
.	.	.	8r	8r	.	.	.	.	.	.	.	.	.	.	.	8r
=48	=48	=48	=48	=48	=48	=48	=48	=48	=48	=48	=48	=48	=48	=48	=48	=48
4EE-\	4E-\	4E-/	(16e-/LL	(16ee-/LL	4E-\	4g/	4ee-\	4G/	4e-\	4E-\	4E-\	4ee-\	4ee-\	4ee-\	4ee-\	(16ee-/LL
.	.	.	16G/JJ)	16e-/JJ)	.	.	.	.	.	.	.	.	.	.	.	16e-/JJ)
.	.	.	8r	8r	.	.	.	.	.	.	.	.	.	.	.	8r
4r	4r	4r	4r	4r	4r	4r	4r	4r	4r	4r	4r	4r	4r	4r	4r	4r
=:||:@	=:||:@	=:||:@	=:||:@	=:||:@	=:||:@	=:||:@	=:||:@	=:||:@	=:||:@	=:||:@	=:||:@	=:||:@	=:||:@	=:||:@	=:||:@	=:||:@
*>C	*>C	*>C	*>C	*>C	*>C	*>C	*	*	*	*>C	*>C	*>C	*>C	*>C	*>C	*>C
!! Trio
*k[b-e-a-]	*k[b-e-a-]	*k[b-e-a-]	*k[b-e-a-]	*k[b-e-a-]	*k[b-e-a-]	*k[b-e-a-]	*M3/4	*M3/4	*M3/4	*k[b-e-a-]	*k[b-e-a-]	*k[b-]	*k[b-]	*k[b-e-a-]	*k[b-e-a-]	*k[b-e-a-]
*M3/4	*M3/4	*M3/4	*M3/4	*M3/4	*M3/4	*M3/4	*>C	*>C	*>C	*M3/4	*M3/4	*M3/4	*M3/4	*M3/4	*M3/4	*M3/4
4r	4r	4r	4r	(8b-\L	4r	4r	4r	4r	4r	4r	4r	4r	8b-\L	4r	4r	4r
.	.	.	.	8ee-\J)	.	.	.	.	.	.	.	.	8ee-\J	.	.	.
=49	=49	=49	=49	=49	=49	=49	=49	=49	=49	=49	=49	=49	=49	=49	=49	=49
2.r	2.r	2.r	2.r	(8b-/L	2.r	2.r	2.r	2.r	2.r	2.r	2.r	2.r	8b-/L	2.r	2.r	2.r
.	.	.	.	8g/)	.	.	.	.	.	.	.	.	8g/	.	.	.
.	.	.	.	(8cc/	.	.	.	.	.	.	.	.	8cc/	.	.	.
.	.	.	.	8a-/	.	.	.	.	.	.	.	.	8a-/	.	.	.
.	.	.	.	8f/	.	.	.	.	.	.	.	.	8f/	.	.	.
.	.	.	.	8d/J)	.	.	.	.	.	.	.	.	8d/J	.	.	.
=50	=50	=50	=50	=50	=50	=50	=50	=50	=50	=50	=50	=50	=50	=50	=50	=50
2.r	2.r	2.r	2.r	(8e-\L	2.r	2.r	2.r	2.r	2.r	2.r	2.r	2.r	8e-\L	2.r	2.r	2.r
.	.	.	.	8g\	.	.	.	.	.	.	.	.	8g\	.	.	.
.	.	.	.	8b-\	.	.	.	.	.	.	.	.	8b-\	.	.	.
.	.	.	.	8ee-\)	.	.	.	.	.	.	.	.	8ee-\	.	.	.
.	.	.	.	(8gg\	.	.	.	.	.	.	.	.	8gg\	.	.	.
.	.	.	.	8ee-\J)	.	.	.	.	.	.	.	.	8ee-\J	.	.	.
=51	=51	=51	=51	=51	=51	=51	=51	=51	=51	=51	=51	=51	=51	=51	=51	=51
2.r	2.r	2.r	(8B-/L	4dd\	2.r	2.r	2.r	2.r	2.r	2.r	2.r	8B-/L	4dd\	2.r	2.r	2.r
.	.	.	8d/	.	.	.	.	.	.	.	.	8d/	.	.	.	.
.	.	.	8f/	4r	.	.	.	.	.	.	.	8f/	4r	.	.	.
.	.	.	8a-/)	.	.	.	.	.	.	.	.	8a-/	.	.	.	.
.	.	.	(8cc/	(8aa-\L	.	.	.	.	.	.	.	8cc/	8aa-\L	.	.	.
.	.	.	8a-/J)	8ff\J)	.	.	.	.	.	.	.	8a-/J	8ff\J	.	.	.
=52	=52	=52	=52	=52	=52	=52	=52	=52	=52	=52	=52	=52	=52	=52	=52	=52
2.r	2.r	(8G\L	4g/	4ee-\	2.r	2.r	2.r	2.r	2.r	2.r	(8G\L	4g/	4ee-\	2.r	2.r	2.r
.	.	8B-\	.	.	.	.	.	.	.	.	8B-\	.	.	.	.	.
.	.	8d\	4r	4r	.	.	.	.	.	.	8d\	4r	4r	.	.	.
.	.	8e-\	.	.	.	.	.	.	.	.	8e-\	.	.	.	.	.
.	.	8g\	(8e-/L	(8bb-\L	.	.	.	.	.	.	8g\	4r	8bb-\L	.	.	.
.	.	8e-\J)	8ee-/J)	8gg\J)	.	.	.	.	.	.	8e-\J)	.	8gg\J	.	.	.
=53	=53	=53	=53	=53	=53	=53	=53	=53	=53	=53	=53	=53	=53	=53	=53	=53
2.r	(8AA-\L	4a-\	4ee-\	(2ccc\	2.r	2.r	2.r	2.r	2.r	2.r	4c\	2.r	2ccc\	2.r	2.r	2.r
.	8C\	.	.	.	.	.	.	.	.	.	.	.	.	.	.	.
.	8F\	4r	4r	.	.	.	.	.	.	.	4r	.	.	.	.	.
.	8A-\)	.	.	.	.	.	.	.	.	.	.	.	.	.	.	.
.	8c'\	4r	(8e-/L	8aa-\L	.	.	.	.	.	.	4r	.	8aa-\L	.	.	.
.	8A-'\J	.	8f/J)	8ff\J)	.	.	.	.	.	.	.	.	8ff\J	.	.	.
=54	=54	=54	=54	=54	=54	=54	=54	=54	=54	=54	=54	=54	=54	=54	=54	=54
4BBB-"/	4B-\	4g\	4g/	(8ee-\L	2.r	2.r	2.r	2.r	2.r	2.r	2.r	2.r	8ee-\L	2.r	2.r	2.r
.	.	.	.	8ff\	.	.	.	.	.	.	.	.	8ff\	.	.	.
4r	4r	4r	4r	8gg\	.	.	.	.	.	.	.	.	8gg\	.	.	.
.	.	.	.	8aa-\)	.	.	.	.	.	.	.	.	8aa-\	.	.	.
4r	4r	4r	4r	8bb-'\	.	.	.	.	.	.	.	.	8bb-\	.	.	.
.	.	.	.	8bb-'\J	.	.	.	.	.	.	.	.	8bb-\J	.	.	.
=55	=55	=55	=55	=55	=55	=55	=55	=55	=55	=55	=55	=55	=55	=55	=55	=55
4BBB-"/	4BB-/	8B-'/L	8f'/L	4bb-\	2.r	2.r	2.r	8B-'/L	8f'\L	4r	4r	8B-/L	4bb-\	2.r	2.r	2.r
.	.	8B-'/	8f'/	.	.	.	.	8B-'/	8f'\	.	.	8B-/	.	.	.	.
4r	4r	8B-'/	8f'/	4r	.	.	.	8B-'/	8f'\	4r	4r	8B-/	4r	.	.	.
.	.	8B-'/	8f'/	.	.	.	.	8B-'/	8f'\	.	.	8B-/	.	.	.	.
4r	4r	8B-'/	8f'/	4dd\	.	.	.	8B-'/	8f'\	4BB-/	4A-\	8B-/	4dd\	.	.	.
.	.	8B-'/J	8f'/J	.	.	.	.	8B-'/J	8f'\J	.	.	8B-/J	.	.	.	.
=56	=56	=56	=56	=56	=56	=56	=56	=56	=56	=56	=56	=56	=56	=56	=56	=56
4EE-"\	4E-\	4E-/	4g/	4ee-\	4r	4r	4r	4e-\	4g\	4E-\	4G\	4e-/	4ee-\	4r	4r	4r
4r	4r	4r	4r	4r	4r	4r	4r	4r	4r	4r	4r	4r	4r	4r	4r	4r
=:||:@	=:||:@	=:||:@	=:||:@	=:||:@	=:||:@	=:||:@	=:||:@	=:||:@	=:||:@	=:||:@	=:||:@	=:||:@	=:||:@	=:||:@	=:||:@	=:||:@
*>D	*>D	*>D	*>D	*>D	*>D	*>D	*>D	*>D	*>D	*>D	*>D	*>D	*>D	*>D	*>D	*>D
4r	4r	4r	4r	4r	4r	4r	4r	4r	4r	4r	4r	4r	4r	4r	4r	4r
=57	=57	=57	=57	=57	=57	=57	=57	=57	=57	=57	=57	=57	=57	=57	=57	=57
2.r	2.r	2.r	8b-'\L	8ff'\L	2.r	2.r	2.r	2.r	2.r	2.r	2.r	2.r	2.r	2.r	2.r	2.r
.	.	.	8b-'\	8ff'\	.	.	.	.	.	.	.	.	.	.	.	.
.	.	.	8b-'\	8ff'\	.	.	.	.	.	.	.	.	.	.	.	.
.	.	.	8b-'\	8ff'\	.	.	.	.	.	.	.	.	.	.	.	.
.	.	.	8b-'\	8ff'\	.	.	.	.	.	.	.	.	.	.	.	.
.	.	.	8b-'\J	8ff'\J	.	.	.	.	.	.	.	.	.	.	.	.
=58	=58	=58	=58	=58	=58	=58	=58	=58	=58	=58	=58	=58	=58	=58	=58	=58
2.r	8e'\L	8b-'\L	2.dd-\	2.gg\	2.r	2.r	2.r	2.r	2.r	2.r	2.r	8b-'\L	2.r	2.r	2.r	2.r
.	8e'\	8b-'\	.	.	.	.	.	.	.	.	.	8b-'\	.	.	.	.
.	8e'\	8b-'\	.	.	.	.	.	.	.	.	.	8b-'\	.	.	.	.
.	8e'\	8b-'\	.	.	.	.	.	.	.	.	.	8b-'\	.	.	.	.
.	8e'\	8b-'\	.	.	.	.	.	.	.	.	.	8b-'\	.	.	.	.
.	8e'\J	8b-'\J	.	.	.	.	.	.	.	.	.	8b-'\J	.	.	.	.
=59	=59	=59	=59	=59	=59	=59	=59	=59	=59	=59	=59	=59	=59	=59	=59	=59
2.r	2.f\	2.a-\	8cc'\L	8aa-'\L	2.r	2.r	2.r	2.r	2.r	2.r	2.r	2.a-\	2.r	2.r	2.r	2.r
.	.	.	8cc'\	8aa-'\	.	.	.	.	.	.	.	.	.	.	.	.
.	.	.	8cc'\	8aa-'\	.	.	.	.	.	.	.	.	.	.	.	.
.	.	.	8cc'\	8aa-'\	.	.	.	.	.	.	.	.	.	.	.	.
.	.	.	8cc'\	8aa-'\	.	.	.	.	.	.	.	.	.	.	.	.
.	.	.	8cc'\J	8aa-'\J	.	.	.	.	.	.	.	.	.	.	.	.
=60	=60	=60	=60	=60	=60	=60	=60	=60	=60	=60	=60	=60	=60	=60	=60	=60
2.r	8e-'\L	8g-'\L	2.cc-\	2.aa\	2.r	2.r	2.r	2.r	2.r	2.r	2.r	8g-'/L	2.r	2.r	2.r	2.r
.	8e-'\	8g-'\	.	.	.	.	.	.	.	.	.	8g-'/	.	.	.	.
.	8e-'\	8g-'\	.	.	.	.	.	.	.	.	.	8g-'/	.	.	.	.
.	8e-'\	8g-'\	.	.	.	.	.	.	.	.	.	8g-'/	.	.	.	.
.	8e-'\	8g-'\	.	.	.	.	.	.	.	.	.	8g-'/	.	.	.	.
.	8e-'\J	8g-'\J	.	.	.	.	.	.	.	.	.	8g-'/J	.	.	.	.
=61	=61	=61	=61	=61	=61	=61	=61	=61	=61	=61	=61	=61	=61	=61	=61	=61
2.r	[2.d\	(2f\	8b-'\L	8bb-'\L	2.r	2.r	2.r	2.r	2.r	2.r	2.r	(2f/	2.r	2.r	2.r	2.r
.	.	.	8b-'\	8bb-'\	.	.	.	.	.	.	.	.	.	.	.	.
.	.	.	8b-'\	8bb-'\	.	.	.	.	.	.	.	.	.	.	.	.
.	.	.	8b-'\	8bb-'\	.	.	.	.	.	.	.	.	.	.	.	.
.	.	4g\	8b'\	8bb'\	.	.	.	.	.	.	.	4g/	.	.	.	.
.	.	.	8b'\J	8bb'\J	.	.	.	.	.	.	.	.	.	.	.	.
=62	=62	=62	=62	=62	=62	=62	=62	=62	=62	=62	=62	=62	=62	=62	=62	=62
2.r	4d\]	4a-\)	4cc\	(8ccc\L	2.r	2.r	2.r	2.r	2.r	2.r	2.r	4a-\)	2.r	2.r	2.r	2.r
.	.	.	.	8bb-\	.	.	.	.	.	.	.	.	.	.	.	.
.	4r	4r	4r	8aa-\	.	.	.	.	.	.	.	4r	.	.	.	.
.	.	.	.	8gg\)	.	.	.	.	.	.	.	.	.	.	.	.
.	4r	4r	4r	8ff'\	.	.	.	.	.	.	.	4r	.	.	.	.
.	.	.	.	8ff'\J	.	.	.	.	.	.	.	.	.	.	.	.
=63	=63	=63	=63	=63	=63	=63	=63	=63	=63	=63	=63	=63	=63	=63	=63	=63
2.r	4d\	4a-\	4f/	(8aa-\L	2.r	2.r	2.r	2.r	2.r	2.r	2.r	2.r	2.r	2.r	2.r	2.r
.	.	.	.	8gg\	.	.	.	.	.	.	.	.	.	.	.	.
.	4r	4r	4r	8ff\	.	.	.	.	.	.	.	.	.	.	.	.
.	.	.	.	8ee-\)	.	.	.	.	.	.	.	.	.	.	.	.
.	4r	4r	4r	8dd'\	.	.	.	.	.	.	.	.	.	.	.	.
.	.	.	.	8dd'\J	.	.	.	.	.	.	.	.	.	.	.	.
=64	=64	=64	=64	=64	=64	=64	=64	=64	=64	=64	=64	=64	=64	=64	=64	=64
2.r	4d\	4f\	4a-/	(8ff\L	2.r	2.r	2.r	2.r	2.r	2.r	2.r	2.r	2.r	2.r	2.r	2.r
.	.	.	.	8ee-\	.	.	.	.	.	.	.	.	.	.	.	.
.	4r	4r	4r	8dd\	.	.	.	.	.	.	.	.	.	.	.	.
.	.	.	.	8cc\)	.	.	.	.	.	.	.	.	.	.	.	.
.	4r	4r	4r	8b-'\	.	.	.	.	.	.	.	.	.	.	.	.
.	.	.	.	8b-'\J	.	.	.	.	.	.	.	.	.	.	.	.
=65	=65	=65	=65	=65	=65	=65	=65	=65	=65	=65	=65	=65	=65	=65	=65	=65
4EE-"\	(8d-\L	[2.e-\	(4ee-\	2gg\	2.r	2.r	2.r	2.r	2.r	2.r	2.r	2.r	2.r	2.r	2.r	2.r
.	8c\	.	.	.	.	.	.	.	.	.	.	.	.	.	.	.
4r	8B-\	.	4e-/)	.	.	.	.	.	.	.	.	.	.	.	.	.
.	8A-\)	.	.	.	.	.	.	.	.	.	.	.	.	.	.	.
4r	8G'\	.	4dd-\	[4bb-\	.	.	.	.	.	.	.	.	.	.	.	.
.	8G'\J	.	.	.	.	.	.	.	.	.	.	.	.	.	.	.
=66	=66	=66	=66	=66	=66	=66	=66	=66	=66	=66	=66	=66	=66	=66	=66	=66
4EE-"\	(8A-\L	4e-\]	2cc\	4bb-\]	2.r	2.r	2.r	2.r	2.r	2.r	2.r	2.r	2.r	2.r	2.r	2.r
.	8G\	.	.	.	.	.	.	.	.	.	.	.	.	.	.	.
4r	8F\	4e-\	.	4aa-\	.	.	.	.	.	.	.	.	.	.	.	.
.	8E-\)	.	.	.	.	.	.	.	.	.	.	.	.	.	.	.
4r	8D'\	[4f\	[4b-\	4aa-\	.	.	.	.	.	.	.	.	.	.	.	.
.	8D'\J	.	.	.	.	.	.	.	.	.	.	.	.	.	.	.
=67	=67	=67	=67	=67	=67	=67	=67	=67	=67	=67	=67	=67	=67	=67	=67	=67
4EE-"\	(8E-/L	4f\]	4b-\]	(2gg\	2.r	2.r	2.r	2.r	2.r	2.r	2.r	2.r	2.r	2.r	2.r	2.r
.	8D/	.	.	.	.	.	.	.	.	.	.	.	.	.	.	.
4r	8C/	4e-\	4ee-\	.	.	.	.	.	.	.	.	.	.	.	.	.
.	8BB-/)	.	.	.	.	.	.	.	.	.	.	.	.	.	.	.
4AAA"/	8AA'/	4e-\	4e-/	4gg-\)	.	.	.	.	.	.	.	.	.	.	.	.
.	8AA'/J	.	.	.	.	.	.	.	.	.	.	.	.	.	.	.
=68	=68	=68	=68	=68	=68	=68	=68	=68	=68	=68	=68	=68	=68	=68	=68	=68
4BBB-"/	[2.BB-/	4b-\	(2.d/	(8ff\L	2.r	2.r	2.r	2.r	2.r	2.r	2.r	2.r	2.r	2.r	2.r	2.r
.	.	.	.	8ee-\	.	.	.	.	.	.	.	.	.	.	.	.
4r	.	4r	.	8dd\	.	.	.	.	.	.	.	.	.	.	.	.
.	.	.	.	8cc\)	.	.	.	.	.	.	.	.	.	.	.	.
4r	.	4r	.	8b-'\	.	.	.	.	.	.	.	.	.	.	.	.
.	.	.	.	8a-'\J	.	.	.	.	.	.	.	.	.	.	.	.
=69	=69	=69	=69	=69	=69	=69	=69	=69	=69	=69	=69	=69	=69	=69	=69	=69
2.r	2.BB-_/	2.r	4e-/)	(8g/L	2.r	2.r	2.r	2.r	2.r	2.r	2.r	2.r	2.r	2.r	2.r	2.r
.	.	.	.	8b-/)	.	.	.	.	.	.	.	.	.	.	.	.
.	.	.	4G/	8a-'/	.	.	.	.	.	.	.	.	.	.	.	.
.	.	.	.	8g'/	.	.	.	.	.	.	.	.	.	.	.	.
.	.	.	4A/	8f'/	.	.	.	.	.	.	.	.	.	.	.	.
.	.	.	.	8e-'/J	.	.	.	.	.	.	.	.	.	.	.	.
=70	=70	=70	=70	=70	=70	=70	=70	=70	=70	=70	=70	=70	=70	=70	=70	=70
2.r	4BB-/]	2.r	4B-/	(8d/L	2.r	2.r	2.r	2.r	2.r	2.r	2.r	2.r	2.r	2.r	2.r	2.r
.	.	.	.	8f/)	.	.	.	.	.	.	.	.	.	.	.	.
.	4r	.	4r	(8e-/	.	.	.	.	.	.	.	.	.	.	.	.
.	.	.	.	8g/)	.	.	.	.	.	.	.	.	.	.	.	.
.	4r	.	4r	(8f/	.	.	.	.	.	.	.	.	.	.	.	.
.	.	.	.	8a-/J)	.	.	.	.	.	.	.	.	.	.	.	.
=71	=71	=71	=71	=71	=71	=71	=71	=71	=71	=71	=71	=71	=71	=71	=71	=71
2.r	2.r	2.r	2.r	(8d/L	2.r	2.r	2.r	2.r	2.r	2.r	2.r	2.r	2.r	2.r	2.r	2.r
.	.	.	.	8f/)	.	.	.	.	.	.	.	.	.	.	.	.
.	.	.	.	(8e-/	.	.	.	.	.	.	.	.	.	.	.	.
.	.	.	.	8g/)	.	.	.	.	.	.	.	.	.	.	.	.
.	.	.	.	(8f/	.	.	.	.	.	.	.	.	.	.	.	.
.	.	.	.	8a-/J)	.	.	.	.	.	.	.	.	.	.	.	.
=72	=72	=72	=72	=72	=72	=72	=72	=72	=72	=72	=72	=72	=72	=72	=72	=72
2.r	2.r	2.r	2.r	(8g\L	2.r	2.r	2.r	2.r	2.r	2.r	2.r	2.r	4r	2.r	2.r	2.r
.	.	.	.	8b-\)	.	.	.	.	.	.	.	.	.	.	.	.
.	.	.	.	(8a-\	.	.	.	.	.	.	.	.	4r	.	.	.
.	.	.	.	8cc\)	.	.	.	.	.	.	.	.	.	.	.	.
.	.	.	.	(8b-\	.	.	.	.	.	.	.	.	8b-\L	.	.	.
.	.	.	.	8ee-\J)	.	.	.	.	.	.	.	.	8ee-\J	.	.	.
=73	=73	=73	=73	=73	=73	=73	=73	=73	=73	=73	=73	=73	=73	=73	=73	=73
4GG"\	4G"\	4G"/	4e-"/ 4B-"/	(8b-/L	2.r	2.r	2.r	2.r	2.r	2.r	2.r	2.r	8b-/L	2.r	2.r	2.r
.	.	.	.	8g/)	.	.	.	.	.	.	.	.	8g/	.	.	.
4AA-"\	4A-"\	4A-"/	4e-"/ 4c"/	(8cc/	.	.	.	.	.	.	.	.	8cc/	.	.	.
.	.	.	.	8a-/	.	.	.	.	.	.	.	.	8a-/	.	.	.
4BB-"\	4B-"\	4B-"/	4d"/ 4A-"/	8f/	.	.	.	.	.	.	.	.	8f/	.	.	.
.	.	.	.	8d/J)	.	.	.	.	.	.	.	.	8d/J	.	.	.
=74	=74	=74	=74	=74	=74	=74	=74	=74	=74	=74	=74	=74	=74	=74	=74	=74
4EE-"\	4E-"\	4E-"/	4e-"/ 4G"/	(8e-\L	2.r	2.r	2.r	2.r	2.r	2.r	2.r	2.r	(8e-\L	2.r	2.r	2.r
.	.	.	.	8g\	.	.	.	.	.	.	.	.	8g\	.	.	.
4r	4r	4r	4r	8b-\	.	.	.	.	.	.	.	.	8b-\	.	.	.
.	.	.	.	8ee-\)	.	.	.	.	.	.	.	.	8ee-\	.	.	.
4r	4r	4r	4r	(8gg\	.	.	.	.	.	.	.	.	8gg\	.	.	.
.	.	.	.	8ee-\J)	.	.	.	.	.	.	.	.	8ee-\J)	.	.	.
=75	=75	=75	=75	=75	=75	=75	=75	=75	=75	=75	=75	=75	=75	=75	=75	=75
2.r	2.r	2.r	(8B-/L	4dd\	2.r	2.r	2.r	2.r	2.r	2.r	2.r	(8B-/L	4dd\	2.r	2.r	2.r
.	.	.	8d/	.	.	.	.	.	.	.	.	8d/	.	.	.	.
.	.	.	8f/	4r	.	.	.	.	.	.	.	8f/	4r	.	.	.
.	.	.	8a-/)	.	.	.	.	.	.	.	.	8a-/	.	.	.	.
.	.	.	(8cc/	(8aa-\L	.	.	.	.	.	.	.	8cc/	8aa-\L	.	.	.
.	.	.	8a-/J)	8ff\J)	.	.	.	.	.	.	.	8a-/J)	8ff\J	.	.	.
=76	=76	=76	=76	=76	=76	=76	=76	=76	=76	=76	=76	=76	=76	=76	=76	=76
2.r	2.r	(8G\L	4g/	4ee-\	2.r	2.r	2.r	2.r	2.r	2.r	(8G\L	4g/	4ee-\	2.r	2.r	2.r
.	.	8B-\	.	.	.	.	.	.	.	.	8B-\	.	.	.	.	.
.	.	8d\	4r	4r	.	.	.	.	.	.	8d\	4r	4r	.	.	.
.	.	8e-\	.	.	.	.	.	.	.	.	8e-\	.	.	.	.	.
.	.	8g\	(8e-/L	(8bb-\L	.	.	.	.	.	.	8g\	4r	8bb-\L	.	.	.
.	.	8e-\J)	8ee-/J)	8gg\J)	.	.	.	.	.	.	8e-\J)	.	8gg\J	.	.	.
=77	=77	=77	=77	=77	=77	=77	=77	=77	=77	=77	=77	=77	=77	=77	=77	=77
2.r	(8AA-"\L	4a-\	4ee-\	2ccc\	2.r	2.r	2.r	2.r	2.r	2.r	4c\	2.r	2ccc\	2.r	2.r	2.r
.	8C"\	.	.	.	.	.	.	.	.	.	.	.	.	.	.	.
.	8F"\	4r	4r	.	.	.	.	.	.	.	4r	.	.	.	.	.
.	8A-"\)	.	.	.	.	.	.	.	.	.	.	.	.	.	.	.
.	8c'"\	4r	(8e-/L	(8aa-\L	.	.	.	.	.	.	4r	.	8aa-\L	.	.	.
.	8A-'"\J	.	8f/J)	8ff\J)	.	.	.	.	.	.	.	.	8ff\J	.	.	.
=78	=78	=78	=78	=78	=78	=78	=78	=78	=78	=78	=78	=78	=78	=78	=78	=78
4BBB-"/	4B-"\	4g\	4g/	(8ee-\L	2.r	2.r	2.r	2.r	2.r	2.r	2.r	2.r	8ee-\L	2.r	2.r	2.r
.	.	.	.	8ff\	.	.	.	.	.	.	.	.	8ff\	.	.	.
4r	4r	4r	4r	8gg\	.	.	.	.	.	.	.	.	8gg\	.	.	.
.	.	.	.	8aa-\)	.	.	.	.	.	.	.	.	8aa-\	.	.	.
4r	4r	4r	4r	8bb-'\	.	.	.	.	.	.	.	.	8bb-\	.	.	.
.	.	.	.	8bb-'\J	.	.	.	.	.	.	.	.	8bb-\J	.	.	.
=79	=79	=79	=79	=79	=79	=79	=79	=79	=79	=79	=79	=79	=79	=79	=79	=79
4BBB-"/	4BB-"/	8B-'/L	8f'/L	4bb-\	2.r	2.r	2.r	8B-'/L	8f'\L	4r	4r	8B-/L	4bb-\	2.r	2.r	2.r
.	.	8B-'/	8f'/	.	.	.	.	8B-'/	8f'\	.	.	8B-/	.	.	.	.
4r	4r	8B-'/	8f'/	4r	.	.	.	8B-'/	8f'\	4r	4r	8B-/	4r	.	.	.
.	.	8B-'/	8f'/	.	.	.	.	8B-'/	8f'\	.	.	8B-/	.	.	.	.
4BBB-"/	4BB-"/	8B-'/	8f'/	4dd\	.	.	.	8B-'/	8f'\	4F\	4A-\	8B-/	4dd\	.	.	.
.	.	8B-'/J	8f'/J	.	.	.	.	8B-'/J	8f'\J	.	.	8B-/J	.	.	.	.
=80	=80	=80	=80	=80	=80	=80	=80	=80	=80	=80	=80	=80	=80	=80	=80	=80
4EE-"\	4E-"\	4e-\	4g/	4ee-\	4r	4r	4r	4e-\	4g\	4E-\	4G\	4e-/	4ee-\	4r	4r	4r
4r	4r	4r	4r	4r	4r	4r	4r	4r	4r	4r	4r	4r	4r	4r	4r	4r
=:|!	=:|!	=:|!	=:|!	=:|!	=:|!	=:|!	=:|!	=:|!	=:|!	=:|!	=:|!	=:|!	=:|!	=:|!	=:|!	=:|!
!! Menuetto D.C.
*-	*-	*-	*-	*-	*-	*-	*-	*-	*-	*-	*-	*-	*-	*-	*-	*-
!!!CDT: 1732/3/31/-1809/5/31/
!!!OCO: Johann Peter Salomon
!!!OCY: Oesterreich
!!!ODT: 1795///
!!!MPD: 1795/3/2/
!!!OPC: London
!!!PPR: Ernst Eulenburg, Ltd.
!!!PPP: London
!!!PDT: 1880///
!!!AGN: symphony
!!!AST: classical, orchestral
!!!AMT: simple triple
!!!YOR: Ernst Praetorius, editor
!!!AIN: cbass cello clars cor fagot flt oboe timpa tromp viola violn
!!!EEV: 1.0
!!!RDT: 1995 May 17
!!!YER: 1996 August 10
!!!YEN: United States of America
!!!EFL: 3/4
!!!ENC: Frances Bennion
!!!EED: W.B. Hewlett
!!!VTS: 3967431185
